app/assets/images/remix_icon/user/parent-fill.svg

<svg viewBox="0 0 24 24" xmlns="http://www.w3.org/2000/svg"><path d="M7 11C4.51472 11 2.5 8.98528 2.5 6.5C2.5 4.01472 4.51472 2 7 2C9.48528 2 11.5 4.01472 11.5 6.5C11.5 8.98528 9.48528 11 7 11ZM17.5 15C15.2909 15 13.5 13.2091 13.5 11C13.5 8.79086 15.2909 7 17.5 7C19.7091 7 21.5 8.79086 21.5 11C21.5 13.2091 19.7091 15 17.5 15ZM17.5 16C19.9853 16 22 18.0147 22 20.5V21H13V20.5C13 18.0147 15.0147 16 17.5 16ZM7 12C9.76142 12 12 14.2386 12 17V21H2V17C2 14.2386 4.23858 12 7 12Z"/></svg>

<svg xmlns="http://www.w3.org/2000/svg" viewBox="0 0 24 24">
    <g>
        <path fill="none" d="M0 0h24v24H0z"/>
        <path d="M7 11a4.5 4.5 0 1 1 0-9 4.5 4.5 0 0 1 0 9zm10.5 4a4 4 0 1 1 0-8 4 4 0 0 1 0 8zm0 1a4.5 4.5 0 0 1 4.5 4.5v.5h-9v-.5a4.5 4.5 0 0 1 4.5-4.5zM7 12a5 5 0 0 1 5 5v4H2v-4a5 5 0 0 1 5-5z"/>
    </g>
</svg>
